www/assets/images/test_icons/flags/KR.svg

<svg fill="none" height="15" viewBox="0 0 21 15" width="21" xmlns="http://www.w3.org/2000/svg" xmlns:xlink="http://www.w3.org/1999/xlink"><mask id="a" height="15" maskUnits="userSpaceOnUse" width="21" x="0" y="0"><path d="m19 0h-17c-1.10457 0-2 .89543-2 2v11c0 1.1046.89543 2 2 2h17c1.1046 0 2-.8954 2-2v-11c0-1.10457-.8954-2-2-2z" fill="#fff"/></mask><g mask="url(#a)"><path d="m19 0h-17c-1.10457 0-2 .89543-2 2v11c0 1.1046.89543 2 2 2h17c1.1046 0 2-.8954 2-2v-11c0-1.10457-.8954-2-2-2z" fill="#fff"/><g clip-rule="evenodd" fill-rule="evenodd"><path d="m14 7.5c0 1.933-1.567 3.5-3.5 3.5s-3.5-1.567-3.5-3.5c0-1.12 2.35-1.59 4.328-1.413.21-.056.436-.087.672-.087 1.105 0 2 .672 2 1.5z" fill="#0048ab"/><path d="m10 7s.895-1 2-1 2 .672 2 1.5c0-1.933-1.567-3.5-3.5-3.5-1.397 0-2.603.818-3.164 2.002-.336.998-.336 1.29-.336 1.498.5.5 1.056.5 1.5.5s.843-.193 1.118-.5z" fill="#cd0027"/><path d="m15 5h2l-2-2h-1zm-9 0h-2l2-2h1zm9 5h2l-2 2h-1zm-9 0h-2l2 2h1z" fill="#252526"/></g><path d="m19 .5h-17c-.82843 0-1.5.67157-1.5 1.5v11c0 .8284.67157 1.5 1.5 1.5h17c.8284 0 1.5-.6716 1.5-1.5v-11c0-.82843-.6716-1.5-1.5-1.5z" stroke="#000" stroke-opacity=".1"/></g></svg>

<svg width="21" height="15" viewBox="0 0 21 15" fill="none" xmlns="http://www.w3.org/2000/svg">
<mask id="mask0_3_117" style="mask-type:alpha" maskUnits="userSpaceOnUse" x="0" y="0" width="21" height="15">
<path d="M19 0H2C0.89543 0 0 0.89543 0 2V13C0 14.1046 0.89543 15 2 15H19C20.1046 15 21 14.1046 21 13V2C21 0.89543 20.1046 0 19 0Z" fill="white"/>
</mask>
<g mask="url(#mask0_3_117)">
<path d="M19 0H2C0.89543 0 0 0.89543 0 2V13C0 14.1046 0.89543 15 2 15H19C20.1046 15 21 14.1046 21 13V2C21 0.89543 20.1046 0 19 0Z" fill="white"/>
<path fill-rule="evenodd" clip-rule="evenodd" d="M14 7.5C14 9.433 12.433 11 10.5 11C8.567 11 7 9.433 7 7.5C7 6.38 9.35 5.91 11.328 6.087C11.538 6.031 11.764 6 12 6C13.105 6 14 6.672 14 7.5Z" fill="#0048AB"/>
<path fill-rule="evenodd" clip-rule="evenodd" d="M10 7C10 7 10.895 6 12 6C13.105 6 14 6.672 14 7.5C14 5.567 12.433 4 10.5 4C9.103 4 7.897 4.818 7.336 6.002C7 7 7 7.292 7 7.5C7.5 8 8.056 8 8.5 8C8.944 8 9.343 7.807 9.618 7.5L10 7Z" fill="#CD0027"/>
<path fill-rule="evenodd" clip-rule="evenodd" d="M15 5H17L15 3H14L15 5ZM6 5H4L6 3H7L6 5ZM15 10H17L15 12H14L15 10ZM6 10H4L6 12H7L6 10Z" fill="#252526"/>
<path d="M19 0.5H2C1.17157 0.5 0.5 1.17157 0.5 2V13C0.5 13.8284 1.17157 14.5 2 14.5H19C19.8284 14.5 20.5 13.8284 20.5 13V2C20.5 1.17157 19.8284 0.5 19 0.5Z" stroke="black" stroke-opacity="0.1"/>
</g>
</svg>
